svg/cancel.svg

<svg fill="none" height="24" viewBox="0 0 24 24" width="24" xmlns="http://www.w3.org/2000/svg"><path clip-rule="evenodd" d="m12 3c-2.404 0-4.664.936-6.363 2.637l-1.779-1.779c-.316-.316-.858-.091-.858.357v5.282c0 .277.226.503.503.503h5.282c.448 0 .673-.542.357-.858l-2.091-2.091c1.322-1.322 3.08-2.051 4.949-2.051 3.859 0 7 3.141 7 7s-3.141 7-7 7c-1.869 0-3.627-.729-4.949-2.051-.391-.39-1.024-.39-1.414 0-.391.391-.391 1.024 0 1.414 1.699 1.701 3.959 2.637 6.363 2.637 4.963 0 9-4.037 9-9s-4.037-9-9-9z" fill="#000" fill-rule="evenodd"/></svg>

<svg width="24" height="24" viewBox="0 0 24 24" fill="none" xmlns="http://www.w3.org/2000/svg">
<path fill-rule="evenodd" clip-rule="evenodd" d="M12 3C9.596 3 7.336 3.936 5.637 5.637L3.858 3.858C3.542 3.542 3 3.767 3 4.215V9.497C3 9.774 3.226 10 3.503 10H8.785C9.233 10 9.458 9.458 9.142 9.142L7.051 7.051C8.373 5.729 10.131 5 12 5C15.859 5 19 8.141 19 12C19 15.859 15.859 19 12 19C10.131 19 8.373 18.271 7.051 16.949C6.66 16.559 6.027 16.559 5.637 16.949C5.246 17.34 5.246 17.973 5.637 18.363C7.336 20.064 9.596 21 12 21C16.963 21 21 16.963 21 12C21 7.037 16.963 3 12 3" fill="black"/>
</svg>
